icons/bean.svg

<svg width="24" height="24" viewBox="0 0 24 24" fill="none" xmlns="http://www.w3.org/2000/svg">
<path d="M5.88874 11.2403C7.03537 10.7121 8.0504 10.0636 9.03465 9.06974M5.88874 11.2403C7.11068 13.4739 10.2711 13.8195 12.0315 12.0326C13.8162 10.2211 13.6389 6.64703 11.4379 5.4402M11.4379 5.4402C10.7262 6.69818 10.0365 8.05917 9.03465 9.06974C8.1539 9.95887 7.0034 10.6078 5.88874 11.2403C3.26916 12.7266 0.84751 14.1216 2.59009 18.3279C7.77703 30.8452 30.9877 7.76755 18.2121 2.5693C14.2683 0.966371 12.8121 3.01128 11.4379 5.4402ZM9.03465 9.06974C10.0476 8.0491 10.9022 6.6068 11.4379 5.4402" stroke="black" stroke-width="2" stroke-linecap="round" stroke-linejoin="round"/>
</svg>

<svg xmlns="http://www.w3.org/2000/svg" width="24" height="24" viewBox="0 0 24 24" fill="none" stroke="currentColor" stroke-width="2" stroke-linecap="round" stroke-linejoin="round">
<path d="M5.889 11.24c1.146-.528 2.161-1.176 3.146-2.17m-3.146 2.17c1.222 2.234 4.382 2.58 6.142.793 1.785-1.812 1.608-5.386-.593-6.593m0 0c-.712 1.258-1.402 2.62-2.403 3.63-.881.889-2.032 1.538-3.146 2.17-2.62 1.487-5.041 2.882-3.299 7.088C7.777 30.845 30.988 7.768 18.212 2.569c-3.944-1.603-5.4.442-6.774 2.871M9.035 9.07c1.013-1.02 1.867-2.463 2.403-3.63"/>
</svg>
